X:1
T:Title
%%score { ( 1 3 ) | ( 2 4 ) }
L:1/8
M:4/4
K:Bb
V:1 treble nm="Grand Piano"
V:3 treble 
V:2 bass 
V:4 bass 
V:1
 z4 z2[Q:1/4=110] [DF]2 | [DF]2 [_D=E]2 [=DF]2 [Fd]2 | c3 F [DB]2 [DB]2 | A2 G2 C2 A2 | %4
 G3 E D2 [DF]2 | [DF]2 [_D=E]2 [=DF]2 [Fd]2 | c3 F [DB]2 [FB]2 | A2 B2 [Ec]2 [Ge]2 | %8
[M:3/4] [Fd]3 [Ec] [DB]2 |[M:1/4] [DF]2 |[M:4/4] [Fd]6 z2 | [DF]6 z2 | [FA]6 z2 | [DB]6 z2 | %14
 [Fd]6 z2 | [Ge]6 z2 | [DF]4 c4 |[M:3/4] [B,DB]6 |] %18
V:2
 z4 z2 [B,,B,]2 | [B,,B,]2 [B,,B,]2 [B,,B,]2 [B,,B,]2 | [F,A,F]3 [F,A,] [B,,B,]2 [B,,B,]2 | %3
 [F,CF]2 [F,C]2 [F,A,]2 [F,CF]2 | [F,A,E]3 [F,A,C] [B,,B,]2 [B,,B,]2 | %5
 [B,,B,]2 [B,,B,]2 [B,,B,]2 [B,,B,]2 | [F,A,F]3 [F,A,] [B,,B,]2 [D,B,]2 | %7
 [E,C]2 [D,B,D]2 [C,G,]2 [C,G,]2 |[M:3/4] [F,A,]3 [F,A,] [B,,B,]2 |[M:1/4] [B,,B,]2 | %10
[M:4/4] [B,,B,]2 B,,2 B,,2 B,,2 | B,,2 B,,2 B,,2 B,,2 | F,2 F,2 F,2 [F,A,E]2 | %13
 [B,,B,]2 B,,2 B,,2 [B,,B,]2 | [B,,B,]2 B,,2 B,,2 [B,,B,]2 | [E,B,]2 E,2 E,2 E,2 | z4 E4 | %17
[M:3/4] B,,6 |] %18
V:3
 x8 | x8 | x8 | x8 | x8 | x8 | x8 | x8 |[M:3/4] x6 |[M:1/4] x2 |[M:4/4] z2 B,2 B,2 [B,DB]2 | %11
 B,2 B,2 B,2 [B,DB]2 | C2 C2 C2 c2 | z2 B,2 B,2 [DF]2 | z2 B,2 B,2 [Fd]2 | z2 B,2 B,2 [B,EG]2 | %16
 B,2 B,2 z2 A,2 |[M:3/4] x6 |] %18
V:4
 x8 | x8 | x8 | x8 | x8 | x8 | x8 | x8 |[M:3/4] x6 |[M:1/4] x2 |[M:4/4] x8 | x8 | x8 | x8 | x8 | %15
 x8 | F,2 F,2 [F,A,]2 F,2 |[M:3/4] x6 |] %18

